icons/keyboard-box-line.svg

<svg xmlns="http://www.w3.org/2000/svg" viewBox="0 0 24 24">
    <g>
        <path fill="none" d="M0 0h24v24H0z"/>
        <path d="M4 5v14h16V5H4zM3 3h18a1 1 0 0 1 1 1v16a1 1 0 0 1-1 1H3a1 1 0 0 1-1-1V4a1 1 0 0 1 1-1zm3 4h2v2H6V7zm0 4h2v2H6v-2zm0 4h12v2H6v-2zm5-4h2v2h-2v-2zm0-4h2v2h-2V7zm5 0h2v2h-2V7zm0 4h2v2h-2v-2z"/>
    </g>
</svg>

<svg viewBox="0 0 24 24" fill="currentColor" xmlns="http://www.w3.org/2000/svg">
    <path d="M4 5V19H20V5H4ZM3 3H21C21.5523 3 22 3.44772 22 4V20C22 20.5523 21.5523 21 21 21H3C2.44772 21 2 20.5523 2 20V4C2 3.44772 2.44772 3 3 3ZM6 7H8V9H6V7ZM6 11H8V13H6V11ZM6 15H18V17H6V15ZM11 11H13V13H11V11ZM11 7H13V9H11V7ZM16 7H18V9H16V7ZM16 11H18V13H16V11Z"/>
</svg>
